!!!OTL: Ave Maria (2-2) S. 15
!!!id: P0875
**kern
*clefG2
*k[]
*d:
{8d
4r
4f
4e
4d
=1
*M4/4
4a
2a
4g
=2
*M3/4
2g
4a
=3
4d
4d
4e
=4
*M4/4
4f
4g
4f
4e
=5
2d}
=6
{4c
=7
*M3/4
4f
4a
4g
=8
4.a
8g
4f
=9
4.g
8f
4e
=10
2d}
=11
{4e
=12
4d
4d
4d
=13
*M4/4
2a
2g
=14
2cc
2dd
=15
*M3/4
4cc
4b
4a}
=16
{4g
=17
4a
4b
4cc
=18
4dd
4dd
4a
=19
4g
4a
4f
=20
4e
4e}
=21
{4d
=22
4f
4a
4g
=23
4.a
8g
4f
=24
4.g
8f
4e
=25
2d}
=26
{4d
=27
4f
4a
4g
=28
4.a
8g
4f
=29
4.g
8f
4e
=30
2d}
4r
==
*-
!!!minrhy: 8
!!!meters: 3/4 4/4 ]  ZZ[6
!!!cut: Ave Maria (2-2) S. 15
!!!reg: Lothringen
!!!trd: PINCK, Louis: Verklingende Weisen, Bd 2, Metz 1928
!!!rhy1:  0_X_X_X_  X_X__X_  X__X_  X_X_X_  X_X_X_X_  X__
!!!rhy2: X_  X_X_X_  X_.XX_  X_.XX_  X__
!!!key: P0875  08  D 3/4 4/4 ]  ZZ[6
!!!mod: HEPTATONIK DORISCH]  AMBITUS[9
!!!kad: 115211
!!!akz: 255413b3b1_3b541_1547b+17b5_5+142_3b541_3b541_
!!!fot: 'a__b__c__d__bw_bw_
!!!for: 'a__b__c__d__b__bv_
!!!fok: '$d_^a_Ma_^d_^__^__
!! PHRAS[AUFTAKTIG]
!!!fkt: geistliche, religiöse Lieder
!! LOTH VKL
!! PR[0] 2K[13] 2G[28] 3K[0] 3G[0] 4A[9] 4Ü[0] 5A[0] 6K[0] 6G[0]
!! 7K[0] 7G[0] 8A[0] MEHR[0] SI[50] ABS[32] SR[41] SP[9]
!! ST[13] 2k[13] 2g[31] 3k[3] 3g[0] 4d[3] 4ü[0] 5d[0] 6k[0] 6g[0]
!! 7k[0] 7g[0] 8d[0] mehr[0] si[50] dm[0] sr[44] sp[6]
!! 1F[12] 2F[67] 3F[18] 4F[0] LF[0] 2P[0] 3P[3] 4P[0] TRI[0] DF[4] AB[33]
!! TF[0] U3K[0] U3[0] U4[0] U4Ü[0] U5[3] U6K[0] U6[0] U7K[0] U7[0]
!! N1[9] N2K[0] N2[21] N3K[0] N3[21] N4[12] N4Ü[6] N5[21] N6K[0] N6[6]
!!!n7k: 0] N7[0] O1[0] O2K[0] O2[0] O3K[0] O3[0] HÖ[0
